.local/share/icons/Gruvbox-Plus-Dark/places/16/folder-git.svg

<svg width="16" height="16" version="1.1" xmlns="http://www.w3.org/2000/svg">
  <defs>
    <style id="current-color-scheme" type="text/css">.ColorScheme-Text { color:#ebdbb2; } .ColorScheme-Highlight { color:#458588; }</style>
  </defs>
  <path class="ColorScheme-Text" d="m14.74 7.376-6.113-6.112c-0.351-0.352-0.923-0.352-1.275 0l-1.269 1.27 1.61 1.61c0.374-0.127 0.803-0.042 1.102 0.257 0.299 0.3 0.383 0.732 0.254 1.108l1.552 1.552c0.376-0.13 0.809-0.046 1.108 0.254 0.419 0.419 0.419 1.098 0 1.518-0.419 0.419-1.098 0.419-1.517 0-0.316-0.316-0.393-0.779-0.234-1.167l-1.447-1.447v3.808c0.102 0.051 0.199 0.118 0.284 0.203 0.418 0.419 0.418 1.098 0 1.518-0.419 0.419-1.099 0.419-1.518 0-0.418-0.419-0.418-1.098 0-1.518 0.104-0.103 0.224-0.182 0.352-0.234v-3.844c-0.128-0.052-0.248-0.13-0.352-0.234-0.317-0.317-0.393-0.784-0.231-1.173l-1.587-1.588-4.191 4.191c-0.352 0.353-0.352 0.924 0 1.276l6.113 6.112c0.352 0.352 0.923 0.352 1.275 0l6.084-6.084c0.352-0.352 0.352-0.924 0-1.276z" fill="currentColor"/>
</svg>

<svg xmlns="http://www.w3.org/2000/svg" style="isolation:isolate" width="16" height="16" viewBox="0 0 16 16">
  <defs>
   <style id="current-color-scheme" type="text/css">
   .ColorScheme-Text { color:#ebdbb2; } .ColorScheme-Highlight { color:#458588; }
  </style>
  <linearGradient id="arrongin" x1="0%" x2="0%" y1="0%" y2="100%">
   <stop offset="0%" style="stop-color:#d79921; stop-opacity:1"/>
   <stop offset="100%" style="stop-color:#b57614; stop-opacity:1"/>
  </linearGradient>
  <linearGradient id="aurora" x1="0%" x2="0%" y1="0%" y2="100%">
   <stop offset="0%" style="stop-color:#83a598; stop-opacity:1"/>
   <stop offset="100%" style="stop-color:#b16286; stop-opacity:1"/>
  </linearGradient>
  <linearGradient id="fitdance" x1="0%" x2="0%" y1="0%" y2="100%">
   <stop offset="0%" style="stop-color:#8ec07c; stop-opacity:1"/>
   <stop offset="100%" style="stop-color:#458588; stop-opacity:1"/>
  </linearGradient>
  <linearGradient id="oomox" x1="0%" x2="0%" y1="0%" y2="100%">
   <stop offset="0%" style="stop-color:#458588; stop-opacity:1"/>
   <stop offset="100%" style="stop-color:#928374; stop-opacity:1"/>
  </linearGradient>
  <linearGradient id="rainblue" x1="0%" x2="0%" y1="0%" y2="100%">
   <stop offset="0%" style="stop-color:#b8bb26; stop-opacity:1"/>
   <stop offset="100%" style="stop-color:#076678; stop-opacity:1"/>
  </linearGradient>
  <linearGradient id="sunrise" x1="0%" x2="0%" y1="0%" y2="100%">
   <stop offset="0%" style="stop-color: #fe8019; stop-opacity:1"/>
   <stop offset="100%" style="stop-color: #fabd2f; stop-opacity:1"/>
  </linearGradient>
  <linearGradient id="telinkrin" x1="0%" x2="0%" y1="0%" y2="100%">
   <stop offset="0%" style="stop-color: #83a598; stop-opacity:1"/>
   <stop offset="100%" style="stop-color: #83a598; stop-opacity:1"/>
  </linearGradient>
  <linearGradient id="60spsycho" x1="0%" x2="0%" y1="0%" y2="100%">
   <stop offset="0%" style="stop-color: #fb4934; stop-opacity:1"/>
   <stop offset="25%" style="stop-color: #fabd2f; stop-opacity:1"/>
   <stop offset="50%" style="stop-color: #fe8019; stop-opacity:1"/>
   <stop offset="100%" style="stop-color: #689d6a; stop-opacity:1"/>
  </linearGradient>
  <linearGradient id="90ssummer" x1="0%" x2="0%" y1="0%" y2="100%">
   <stop offset="0%" style="stop-color: #b16286; stop-opacity:1"/>
   <stop offset="20%" style="stop-color: #8ec07c; stop-opacity:1"/>
   <stop offset="50%" style="stop-color: #fabd2f; stop-opacity:1"/>
   <stop offset="100%" style="stop-color: #458588; stop-opacity:1"/>
  </linearGradient>
  <linearGradient id="cyberneon" x1="0%" x2="0%" y1="0%" y2="100%">
    <stop offset="0" style="stop-color:#83a598; stop-opacity:1"/>
    <stop offset="1" style="stop-color:#b16286; stop-opacity:1"/>
  </linearGradient>

  <clipPath id="_clipPath_RoLXWq7AZKQmejTtN7UqeqwGMQCahseg">
   <rect width="16" height="16"/>
  </clipPath>
 </defs>
 <g clip-path="url(#_clipPath_RoLXWq7AZKQmejTtN7UqeqwGMQCahseg)">
  <rect style="fill:#282828" fill-opacity="0" width="16" height="16"/>
  <path fill="currentColor" class="ColorScheme-Text" d="M 14.736 7.376 L 8.623 1.264 C 8.272 0.912 7.7 0.912 7.348 1.264 L 6.079 2.534 L 7.689 4.144 C 8.063 4.017 8.492 4.102 8.791 4.401 C 9.09 4.701 9.174 5.133 9.045 5.509 L 10.597 7.061 C 10.973 6.931 11.406 7.015 11.705 7.315 C 12.124 7.734 12.124 8.413 11.705 8.833 C 11.286 9.252 10.607 9.252 10.188 8.833 C 9.872 8.517 9.795 8.054 9.954 7.666 L 8.507 6.219 L 8.507 10.027 C 8.609 10.078 8.706 10.145 8.791 10.23 C 9.209 10.649 9.209 11.328 8.791 11.748 C 8.372 12.167 7.692 12.167 7.273 11.748 C 6.855 11.329 6.855 10.65 7.273 10.23 C 7.377 10.127 7.497 10.048 7.625 9.996 L 7.625 6.152 C 7.497 6.1 7.377 6.022 7.273 5.918 C 6.956 5.601 6.88 5.134 7.042 4.745 L 5.455 3.157 L 1.264 7.348 C 0.912 7.701 0.912 8.272 1.264 8.624 L 7.377 14.736 C 7.729 15.088 8.3 15.088 8.652 14.736 L 14.736 8.652 C 15.088 8.3 15.088 7.728 14.736 7.376 Z"/>
 </g>
</svg>
